X:1
T:Title
%%score ( 1 2 ) ( 3 4 )
L:1/8
Q:1/4=90
M:4/4
K:C
V:1 treble nm="Grand Piano, Soprano"
V:2 treble 
V:3 bass nm="Choir Pad, O Tell the Sweet Old Story"
V:4 bass 
V:1
 G2 [Ec][EB] [EA][EG][EA][EG] | [CE][DF][EG]E C[EA] [EG]2- | [EG]G[Ec][EB] [EA][EG][EA][EG] | %3
w: By~Powell~George~Fithian * * * * * *|||
 FEA-[DA-] [^CA-][EA-] [DA]2 | A2 [Fd][Fc] [FB][FA][FB][FA] | [B,G][B,F][CE][DF] [EG][_EA] [=EG]2 | %6
w: |||
 ^FE[=B,D][B,E] [B,F][B,G]AB | [Dc][^FA]d-[Gd-] [Fd-][Fd-] [=Fd]2- | %8
w: ||
 [Fd]G[EA][EG] [CE][DF][EG][Ec] | [Ec][EA]B-[FB] [FBf]B- [FBf]2 | z G[EA][Ec] [Fd][F^c][Fe][Fd] | %11
w: |||
 z2 e6- | e z z2 z4 | .B2 z2 z4 | z8 | [FB][Ec] [^FA]2 [=FB]2 [Ec]2- | [Ec]6 z2 |] %17
w: ||||||
V:2
 x8 | x8 | x8 | ^C2 .A,2 z4 | x8 | x8 | _B,2 z2 z2 D2 | z2 .D2 z4 | x8 | z2 .F2 z [Fe] z2 | x8 | %11
 [FB][FG]E[EG] [EG][EG] [EG]2- | [EG][Ge][Ge][Ge] [Gf][Ge] [^FA]2 | %13
 ^F-[Fc][=Fd][Fd] [Fe][Fd] [EG]2- | [EG][EG][FA][Fc] [_EB][EA][=EG][^FA] | x8 | x8 |] %17
V:3
 G,2 C,G, G,,G,C,G, | G,,G,C,G, G,,G,C,G, | G,,G,C,G, G,,G,B,,G, | A,,G, [D,F,]2 [E,G,]2 [F,A,]2 | %4
 z2 D,A, D,A,A,,G, | D,G,C,G, C,^F,C,G, | ^C,G,D,G, D,G,^F,G, | A,C [G,B,]2 [A,C]2 [G,B,]2- | %8
 [G,B,]2 C,G, G,,G,C,G, | G,,G,D,G, G,,G,D,G, | G,,G,D,G, G,,G,D,G, | G,,G,C,G, G,,G, C,2- | %12
 C,[C,C][A,^C][A,C] [A,C][A,C] [D,=C]2 | [D,C]2 [G,B,][G,B,] [G,B,][G,B,] [C,C]2- | %14
 [C,C][C,C][F,C][F,A,] [F,B,][F,C][G,C][G,_E] | [G,D][G,C] [D,C]2 G,2 [C,G,]2- | [C,G,]6 z2 |] %17
V:4
 x8 | x8 | x8 | x8 | x8 | x8 | z4 z2 D,2 | D,2 z2 z4 | x8 | x8 | x8 | x8 | x8 | x8 | x8 | x8 | %16
 x8 |] %17

